neru-light-classic/32x32/apps/reddit.svg

<?xml version="1.0" encoding="UTF-8" standalone="no"?>
<svg
   xmlns:dc="http://purl.org/dc/elements/1.1/"
   xmlns:cc="http://creativecommons.org/ns#"
   xmlns:rdf="http://www.w3.org/1999/02/22-rdf-syntax-ns#"
   xmlns:svg="http://www.w3.org/2000/svg"
   xmlns="http://www.w3.org/2000/svg"
   xmlns:sodipodi="http://sodipodi.sourceforge.net/DTD/sodipodi-0.dtd"
   xmlns:inkscape="http://www.inkscape.org/namespaces/inkscape"
   width="32"
   height="32"
   version="1.1"
   viewBox="0 0 8.47 8.47"
   id="svg14"
   sodipodi:docname="reddit.svg"
   inkscape:version="0.92.1 r">
  <metadata
     id="metadata20">
    <rdf:RDF>
      <cc:Work
         rdf:about="">
        <dc:format>image/svg+xml</dc:format>
        <dc:type
           rdf:resource="http://purl.org/dc/dcmitype/StillImage" />
      </cc:Work>
    </rdf:RDF>
  </metadata>
  <defs
     id="defs18" />
  <sodipodi:namedview
     pagecolor="#ffffff"
     bordercolor="#666666"
     borderopacity="1"
     objecttolerance="10"
     gridtolerance="10"
     guidetolerance="10"
     inkscape:pageopacity="0"
     inkscape:pageshadow="2"
     inkscape:window-width="640"
     inkscape:window-height="480"
     id="namedview16"
     showgrid="false"
     inkscape:zoom="8.9375"
     inkscape:cx="-5.3706294"
     inkscape:cy="16"
     inkscape:current-layer="svg14" />
  <rect
     style="opacity:1;fill:#ff6a33;fill-opacity:1;fill-rule:evenodd;stroke:none;stroke-width:0.27404243;stroke-linecap:round;stroke-linejoin:bevel;stroke-miterlimit:4;stroke-dasharray:none;stroke-dashoffset:0;stroke-opacity:1"
     id="rect4497-3"
     width="7.4650846"
     height="7.4650846"
     x="0.50245774"
     y="0.50245774"
     ry="1.4756809" />
  <path
     inkscape:connector-curvature="0"
     id="path8"
     d="M 4.5016505,1.9857901 A 0.13230489,0.13230489 0 0 0 4.3688421,2.0989615 L 4.1419828,3.5769074 A 2.1166667,1.4552082 0 0 0 2.7534369,3.9903189 0.52916669,0.52916669 0 0 0 2.3829169,3.8383901 0.52916669,0.52916669 0 0 0 1.8537499,4.3675568 0.52916669,0.52916669 0 0 0 2.1390039,4.8367789 2.1166667,1.4552082 0 0 0 2.1183339,5.0290151 2.1166667,1.4552082 0 0 0 4.2350002,6.4842234 2.1166667,1.4552082 0 0 0 6.3516669,5.0290151 2.1166667,1.4552082 0 0 0 6.3304796,4.8372956 0.52916669,0.52916669 0 0 0 6.6162502,4.3675568 0.52916669,0.52916669 0 0 0 6.0870836,3.8383901 0.52916669,0.52916669 0 0 0 5.71553,3.9908356 2.1166667,1.4552082 0 0 0 4.4081163,3.5789744 L 4.6091375,2.2787954 5.296951,2.4317577 A 0.396875,0.396875 0 0 0 5.6902086,2.7800568 0.396875,0.396875 0 0 0 6.0870836,2.3831818 0.396875,0.396875 0 0 0 5.6902086,1.9863069 0.396875,0.396875 0 0 0 5.3543118,2.172342 L 4.5290391,1.9894075 a 0.13230489,0.13230489 0 0 0 -0.027389,-0.00362 z M 3.5735419,4.3675568 a 0.396875,0.396875 0 0 1 0.396875,0.396875 0.396875,0.396875 0 0 1 -0.396875,0.396875 0.396875,0.396875 0 0 1 -0.396875,-0.396875 0.396875,0.396875 0 0 1 0.396875,-0.396875 z m 1.3229167,0 a 0.396875,0.396875 0 0 1 0.396875,0.396875 0.396875,0.396875 0 0 1 -0.396875,0.396875 0.396875,0.396875 0 0 1 -0.396875,-0.396875 0.396875,0.396875 0 0 1 0.396875,-0.396875 z m 0.2573485,1.3182658 a 0.13276409,0.13276409 0 0 1 0.1054201,0.2258261 c 0,0 -0.08667,0.091948 -0.2516643,0.1679482 C 4.8425685,6.1556169 4.5891104,6.2261568 4.2318996,6.2201568 3.8767481,6.2140868 3.6278029,6.1438458 3.4645048,6.0718454 3.3012066,5.9998954 3.2143909,5.9152658 3.2143909,5.9152658 a 0.13230489,0.13230489 0 0 1 0.082166,-0.2263426 0.13230489,0.13230489 0 0 1 0.01292,-5.291e-4 0.13230489,0.13230489 0 0 1 0.094568,0.041341 c 0,0 0.037715,0.042336 0.1679485,0.099735 0.1302334,0.0574 0.3433042,0.1190569 0.6661091,0.1250569 0.3207454,0.00548 0.5293035,-0.056039 0.657841,-0.1152385 0.1285377,-0.05917 0.166398,-0.10542 0.166398,-0.10542 a 0.13276409,0.13276409 0 0 1 0.091467,-0.048059 z"
     style="fill:#ffffff;stroke-width:0.26458332" />
</svg>

<svg xmlns="http://www.w3.org/2000/svg" width="32" height="32" viewBox="0 0 8.47 8.47"><rect width="7.465" height="7.465" x=".502" y=".502" ry="1.476" fill="#ff6a33" fill-rule="evenodd"/><path d="M4.502 1.986a.132.132 0 0 0-.133.113l-.227 1.478a2.117 1.455 0 0 0-1.389.413.53.53 0 0 0-.37-.152.53.53 0 0 0-.53.53.53.53 0 0 0 .286.469 2.117 1.455 0 0 0-.02.192 2.117 1.455 0 0 0 2.116 1.455A2.117 1.455 0 0 0 6.352 5.03a2.117 1.455 0 0 0-.022-.192.53.53 0 0 0 .286-.47.53.53 0 0 0-.529-.529.53.53 0 0 0-.371.153 2.117 1.455 0 0 0-1.308-.412l.201-1.3.688.153a.397.397 0 0 0 .393.348.397.397 0 0 0 .397-.397.397.397 0 0 0-.397-.397.397.397 0 0 0-.336.186L4.53 1.99a.132.132 0 0 0-.027-.003zm-.928 2.382a.397.397 0 0 1 .396.396.397.397 0 0 1-.396.397.397.397 0 0 1-.397-.397.397.397 0 0 1 .397-.396zm1.322 0a.397.397 0 0 1 .397.396.397.397 0 0 1-.397.397.397.397 0 0 1-.396-.397.397.397 0 0 1 .396-.396zm.258 1.318a.133.133 0 0 1 .105.226s-.086.092-.251.168a1.775 1.775 0 0 1-.776.14 1.976 1.976 0 0 1-.767-.148.91.91 0 0 1-.25-.157.132.132 0 0 1 .082-.226.132.132 0 0 1 .012 0 .132.132 0 0 1 .095.04s.038.043.168.1c.13.058.343.12.666.126.32.005.53-.057.658-.116.128-.059.166-.105.166-.105a.133.133 0 0 1 .092-.048z" fill="#fff"/></svg>
